X:1
T:Old German Dance
T:Michael Praetorius (1571 - 1621)
%%score { 1 | 2 }
L:1/8
Q:1/4=112
M:4/4
K:C
V:1 treble nm="Piano" snm="Pno."
V:2 bass 
V:1
"^Moderato"!mf! (C2 D2 E2 E2 | F2 D2 E2 E2) | (C2 D2 E2 G2 | F4 E4) |!p! (C2 D2 E2 E2 | %5
 F2 D2 E2 E2) | (C2 D2 E2 G2 | F4 E4) |!f! G4 G4 | (GFED E2 C2) | G4 G4 | (GFED C4) |!p! G4 G4 | %13
 GFED E2 C2 |!f! G4 G4 | (GFED C4) |] %16
V:2
 C,4 G,4 | D,4 C,4 | E,4 C,4 | D,4 C,4 | C,4 G,4 | D,4 C,4 | E,4 C,4 | D,4 C,4 | %8
 (G,F,E,D, E,2 C,2) | G,4 G,4 | (G,F,E,D, E,2 C,2) | (E,2 G,2 C,4) | (G,F,E,D, E,2 C,2) | G,4 G,4 | %14
 (G,F,E,D, E,2 C,2) | (E,2 G,2 C,4) |] %16

